X:1
T:Emerald Coast, LM
T:Emerald Coast, LM
T:Charles J. Butler, 1896
T:Public Domain Courtesy of the Cyber Hymnal™
C:Charles J. Butler, 1896
Z:Public Domain
Z:Courtesy of the Cyber Hymnal™
%%score ( 1 2 ) ( 3 4 )
L:1/8
Q:1/4=95
M:4/4
K:Eb
V:1 treble 
V:2 treble 
V:3 bass 
V:4 bass 
V:1
 [EG]2 | [EG]3 [EG] [EF][EG] [EA]>[EA] | [EG]6 [DF]2 | [DF]3 [^C=E] [DF][DF] [DF]>[DG] | %4
 E6 z [EB] | [DA]>[EG] [Ec]3 [DA] [EG]>[EA] | [EB]4 [B,E]2 [CE][CE] | %7
 (EF !fermata![EG]3) [DF][B,E][DF] | E6 |] %9
V:2
 x2 | x8 | x8 | x8 | E6 x2 | x8 | x8 | C2 x6 | E6 |] %9
V:3
 [E,B,]2 | [E,B,]3 [E,B,] [E,A,][E,B,] [E,C]>[E,C] | [E,B,]6 [B,,A,]2 | %3
 [B,,A,]3 [B,,G,] [B,,A,][B,,A,] [B,,A,]>[B,,B,] | [E,G,]6 z [G,B,] | %5
 [F,B,]>[E,B,] A,3 [F,B,] [E,B,]>[F,B,] | [G,B,]4 [E,G,]2 [C,G,][C,G,] | %7
 ([C,G,]2 !fermata![C,B,]3) [B,,A,][B,,G,][B,,A,] | [E,G,]6 |] %9
V:4
 x2 | x8 | x8 | x8 | x8 | x2 A,3 x3 | x8 | x8 | x6 |] %9

